X: 381
M: C
L: 1/16
K: D
V: 1
f2 |\
ddd2 f3d g3ef3e | e2ee g3e g3ec3e |\
d3ef3g a3ba3f | ge3a3g f3ed2f2 |
ddd2 f3d g3ef3d | eee2 g3e g3e =c2(fg |\
a3)fg3e f3de3c | BABc dcBA TF3E D2 :|
V: 2 clef=bass middle=d
z2 |\
d4d4 d4d4 | =c4c4 c4c4 |\
d4d4 d4d4 | d4d4 d4d4 |\
d4d4 d4d4 |
=c4c4 c4c4 |
d4d4 d4d4 | d4d4 d4d2 |]\
z2 |\
d4d4 d4d4 | =c4c4 c4c4 |\
d4d4 d4d4 |
g4a4 d4d4 |\
d4d4 d4d4 | =c4c4 c4c4 |\
d4d4 d4d4 | G4A4 D4D2 :|

